;FLAVOR:UltiGCode
;TIME:6691
;MATERIAL:13844
;MATERIAL2:0
;NOZZLE_DIAMETER:0.4
;MINX:70.395
;MINY:87.808
;MINZ:0.27
;MAXX:151.725
;MAXY:133.804
;MAXZ:33.42
;Generated with Cura_SteamEngine 4.13.1
M82 ;absolute extrusion mode
G0 F3000 Y50 ;avoid prime blob
G92 E0
G92 E0
G10
;LAYER_COUNT:222
;LAYER:0
M107
G0 F4500 X73.419 Y91.6 Z0.27
;TYPE:SKIRT
G11
G1 F1800 X74.068 Y91.144 E0.07496
G1 X74.76 Y90.755 E0.14997
G1 X75.251 Y90.531 E0.20097
G1 X75.357 Y90.487 E0.21182
G1 X76.104 Y90.22 E0.28678
G1 X76.874 Y90.029 E0.36175
G1 X77.66 Y89.918 E0.43677
G1 X78.453 Y89.885 E0.51177
G1 X79.245 Y89.933 E0.58675
G1 X80.028 Y90.06 E0.66171
G1 X80.795 Y90.266 E0.73676
G1 X81.536 Y90.547 E0.81165
G1 X82.234 Y90.896 E0.8854
G1 X82.833 Y90.49 E0.95378
G1 X83.525 Y90.1 E1.02885
G1 X84.552 Y89.675 E1.13388
G1 X84.585 Y89.664 E1.13717
G1 X85.349 Y89.451 E1.21212
G1 X86.079 Y89.318 E1.28224
G1 X86.954 Y89.223 E1.36541
G1 X87.477 Y89.196 E1.4149
G1 X88.32 Y89.198 E1.49457
G1 X88.842 Y89.227 E1.54397
G1 X89.63 Y89.311 E1.61886
G1 X89.903 Y89.354 E1.64498
G1 X90.68 Y89.517 E1.72
G1 X91.603 Y89.821 E1.81183
G1 X91.638 Y89.835 E1.8154
G1 X92.359 Y90.167 E1.89041
G1 X92.84 Y90.44 E1.94267
G1 X93.061 Y90.576 E1.9672
G1 X93.665 Y90.991 E2.03645
G1 X93.87 Y90.876 E2.05866
G1 X94.597 Y90.558 E2.13365
G1 X95.353 Y90.315 E2.20869
G1 X96.129 Y90.15 E2.28366
G1 X96.917 Y90.064 E2.35857
G1 X97.38 Y90.05 E2.40234
G1 X104.574 Y90.05 E3.08217
G1 X105.079 Y89.603 E3.14591
G1 X105.723 Y89.139 E3.22092
G1 X106.41 Y88.742 E3.2959
G1 X107.134 Y88.417 E3.37089
G1 X107.886 Y88.166 E3.44581
G1 X108.661 Y87.992 E3.52087
G1 X109.448 Y87.896 E3.59579
G1 X109.999 Y87.877 E3.64789
G1 X111.904 Y87.877 E3.82792
G1 X112.696 Y87.917 E3.90286
G1 X113.53 Y88.047 E3.98262
G1 X114.511 Y88.254 E4.07737
G1 X115.278 Y88.456 E4.15232
G1 X116.021 Y88.735 E4.22732
G1 X116.659 Y89.052 E4.29464
G1 X118.804 Y89.052 E4.49735
G1 X119.597 Y89.092 E4.57238
G1 X120.381 Y89.212 E4.64733
G1 X121.15 Y89.41 E4.72237
G1 X121.894 Y89.684 E4.7973
G1 X122.607 Y90.032 E4.87227
G1 X123.282 Y90.45 E4.9473
G1 X123.293 Y90.459 E4.94864
G1 X123.93 Y90.1 E5.01774
G1 X124.957 Y89.675 E5.12277
G1 X124.99 Y89.664 E5.12606
G1 X125.754 Y89.451 E5.20101
G1 X126.484 Y89.318 E5.27113
G1 X127.359 Y89.223 E5.35431
G1 X127.882 Y89.196 E5.4038
G1 X128.725 Y89.198 E5.48346
G1 X129.247 Y89.227 E5.53286
G1 X130.035 Y89.311 E5.60775
G1 X130.308 Y89.354 E5.63387
G1 X131.085 Y89.517 E5.70889
G1 X132.008 Y89.821 E5.80073
G1 X132.24 Y89.926 E5.82479
G1 X132.306 Y89.859 E5.83368
G1 X132.919 Y89.356 E5.90861
G1 X133.579 Y88.916 E5.98357
G1 X134.281 Y88.545 E6.05861
G1 X135.016 Y88.246 E6.13359
G1 X135.777 Y88.023 E6.20853
G1 X136.557 Y87.878 E6.2835
G1 X137.607 Y87.808 E6.38295
G1 X138.035 Y87.808 E6.42339
G1 X138.827 Y87.848 E6.49833
G1 X139.612 Y87.967 E6.57336
G1 X140.38 Y88.165 E6.64831
G1 X141.125 Y88.44 E6.72336
G1 X141.838 Y88.787 E6.79829
G1 X142.513 Y89.205 E6.87332
G1 X143.142 Y89.688 E6.94826
G1 X143.533 Y90.05 E6.99862
G1 X143.747 Y90.05 E7.01884
G1 X144.539 Y90.09 E7.09378
G1 X145.324 Y90.209 E7.16881
G1 X146.092 Y90.407 E7.24376
G1 X146.837 Y90.682 E7.3188
G1 X147.55 Y91.029 E7.39374
G1 X148.225 Y91.447 E7.46877
G1 X148.854 Y91.93 E7.54371
G1 X149.315 Y92.357 E7.60309
G1 X149.418 Y92.46 E7.61686
G1 X149.951 Y93.048 E7.69185
G1 X150.421 Y93.687 E7.76681
G1 X150.824 Y94.371 E7.84184
G1 X151.157 Y95.091 E7.9168
G1 X151.415 Y95.841 E7.99175
G1 X151.597 Y96.614 E8.0668
G1 X151.7 Y97.4 E8.14171
G1 X151.725 Y98.028 E8.2011
G1 X151.725 Y124.882 E10.73881
G1 X151.685 Y125.674 E10.81375
G1 X151.566 Y126.459 E10.88878
G1 X151.368 Y127.227 E10.96373
G1 X151.093 Y127.972 E11.03877
G1 X150.746 Y128.685 E11.11371
G1 X150.328 Y129.36 E11.18873
G1 X149.845 Y129.989 E11.26368
G1 X149.418 Y130.45 E11.32306
G1 X149.315 Y130.553 E11.33682
G1 X148.727 Y131.086 E11.41182
G1 X148.088 Y131.556 E11.48678
G1 X147.404 Y131.959 E11.5618
G1 X146.684 Y132.292 E11.63677
G1 X145.934 Y132.55 E11.71172
G1 X145.161 Y132.732 E11.78677
G1 X144.375 Y132.835 E11.86168
G1 X143.747 Y132.86 E11.92107
G1 X137.785 Y132.86 E12.48448
G1 X136.993 Y132.82 E12.55942
G1 X136.208 Y132.701 E12.63445
G1 X135.44 Y132.503 E12.7094
G1 X134.695 Y132.228 E12.78444
G1 X134.137 Y131.956 E12.84311
G1 X133.551 Y132.369 E12.91085
G1 X133.328 Y132.51 E12.93579
G1 X132.636 Y132.9 E13.01085
G1 X131.609 Y133.325 E13.11588
G1 X131.576 Y133.336 E13.11917
G1 X130.812 Y133.549 E13.19412
G1 X130.082 Y133.682 E13.26424
G1 X129.207 Y133.777 E13.34742
G1 X128.684 Y133.804 E13.39691
G1 X127.841 Y133.802 E13.47657
G1 X127.319 Y133.773 E13.52598
G1 X126.531 Y133.689 E13.60086
G1 X126.258 Y133.646 E13.62698
G1 X125.481 Y133.483 E13.702
G1 X124.558 Y133.179 E13.79384
G1 X124.523 Y133.165 E13.7974
G1 X123.802 Y132.833 E13.87241
G1 X123.321 Y132.56 E13.92468
G1 X123.1 Y132.424 E13.9492
G1 X122.446 Y131.974 E14.02422
G1 X122.291 Y132.034 E14.03992
G1 X121.564 Y132.352 E14.11491
G1 X120.808 Y132.595 E14.18995
G1 X120.032 Y132.76 E14.26492
G1 X119.244 Y132.846 E14.33983
G1 X118.781 Y132.86 E14.38361
G1 X97.38 Y132.86 E16.406
G1 X96.588 Y132.82 E16.48094
G1 X95.803 Y132.701 E16.55597
G1 X95.035 Y132.503 E16.63092
G1 X94.29 Y132.228 E16.70596
G1 X93.732 Y131.956 E16.76463
G1 X93.146 Y132.369 E16.83238
G1 X92.923 Y132.51 E16.85731
G1 X92.231 Y132.9 E16.93237
G1 X91.204 Y133.325 E17.03741
G1 X91.171 Y133.336 E17.04069
G1 X90.407 Y133.549 E17.11564
G1 X89.677 Y133.682 E17.18577
G1 X88.802 Y133.777 E17.26894
G1 X88.279 Y133.804 E17.31843
G1 X87.436 Y133.802 E17.39809
G1 X86.914 Y133.773 E17.4475
G1 X86.126 Y133.689 E17.52238
G1 X85.853 Y133.646 E17.5485
G1 X85.076 Y133.483 E17.62353
G1 X84.153 Y133.179 E17.71536
G1 X84.118 Y133.165 E17.71892
G1 X83.397 Y132.833 E17.79393
G1 X82.916 Y132.56 E17.8462
G1 X82.695 Y132.424 E17.87072
G1 X82.053 Y131.982 E17.94438
G1 X81.89 Y132.074 E17.96206
G1 X81.162 Y132.392 E18.03714
G1 X80.407 Y132.635 E18.11209
G1 X79.631 Y132.801 E18.18708
G1 X78.842 Y132.887 E18.26208
G1 X78.049 Y132.894 E18.33702
G1 X77.259 Y132.821 E18.412
G1 X76.48 Y132.669 E18.487
G1 X75.382 Y132.309 E18.5962
G1 X75.275 Y132.265 E18.60713
G1 X74.557 Y131.927 E18.68212
G1 X73.877 Y131.518 E18.75711
G1 X73.242 Y131.043 E18.83205
G1 X72.657 Y130.506 E18.90709
G1 X72.13 Y129.913 E18.98206
G1 X71.665 Y129.27 E19.05705
G1 X71.267 Y128.584 E19.132
G1 X70.94 Y127.861 E19.20698
G1 X70.688 Y127.109 E19.28193
G1 X70.512 Y126.335 E19.35694
G1 X70.415 Y125.547 E19.43197
G1 X70.395 Y124.982 E19.4854
G1 X70.395 Y122.194 E19.74886
G1 X70.435 Y121.402 E19.8238
G1 X70.554 Y120.617 E19.89883
G1 X70.752 Y119.849 E19.97378
G1 X71.027 Y119.104 E20.04883
G1 X71.374 Y118.391 E20.12376
G1 X71.4 Y118.349 E20.12843
G1 X71.3 Y117.595 E20.2003
G1 X71.275 Y116.964 E20.25998
G1 X71.275 Y104.391 E21.44813
G1 X71.284 Y104.211 E21.46516
G1 X71.179 Y104.018 E21.48592
G1 X70.87 Y103.287 E21.56092
G1 X70.637 Y102.528 E21.63595
G1 X70.481 Y101.75 E21.71093
G1 X70.395 Y100.593 E21.82057
G1 X70.395 Y97.804 E22.08413
G1 X70.435 Y97.012 E22.15907
G1 X70.554 Y96.227 E22.2341
G1 X70.752 Y95.459 E22.30905
G1 X71.027 Y94.714 E22.3841
G1 X71.374 Y94.001 E22.45903
G1 X71.792 Y93.326 E22.53406
G1 X72.275 Y92.697 E22.609
G1 X72.82 Y92.12 E22.68401
G1 X73.419 Y91.6 E22.75897
G0 F4500 X73.76 Y91.78
G1 F1800 X74.404 Y91.348 E22.83225
G1 X75.385 Y90.854 E22.93604
G1 X75.491 Y90.81 E22.94689
G1 X76.222 Y90.55 E23.02021
G1 X76.975 Y90.366 E23.09346
G1 X77.744 Y90.262 E23.16679
G1 X78.519 Y90.236 E23.24007
G1 X79.293 Y90.291 E23.3134
G1 X80.057 Y90.425 E23.3867
G1 X80.803 Y90.637 E23.45999
G1 X81.523 Y90.925 E23.53327
G1 X82.21 Y91.285 E23.60656
G1 X82.248 Y91.31 E23.61086
G1 X82.797 Y90.927 E23.67412
G1 X83.02 Y90.786 E23.69905
G1 X83.697 Y90.406 E23.77242
G1 X84.662 Y90.007 E23.8711
G1 X84.695 Y89.996 E23.87439
G1 X85.443 Y89.789 E23.94773
G1 X86.136 Y89.663 E24.01429
G1 X86.972 Y89.573 E24.09375
G1 X87.495 Y89.546 E24.14324
G1 X88.3 Y89.548 E24.21931
G1 X88.822 Y89.577 E24.26872
G1 X89.576 Y89.657 E24.34037
G1 X89.849 Y89.7 E24.36649
G1 X90.608 Y89.86 E24.43979
G1 X91.473 Y90.146 E24.52588
G1 X91.508 Y90.16 E24.52945
G1 X92.212 Y90.485 E24.60272
G1 X92.657 Y90.738 E24.65109
G1 X92.878 Y90.874 E24.67562
G1 X93.517 Y91.314 E24.74893
G1 X93.628 Y91.409 E24.76274
G1 X94.199 Y91.106 E24.82383
G1 X94.918 Y90.814 E24.89716
G1 X95.663 Y90.599 E24.97044
G1 X96.426 Y90.461 E25.04371
G1 X97.38 Y90.4 E25.13405
G1 X104.709 Y90.4 E25.82664
G1 X104.73 Y90.379 E25.82944
G1 X105.311 Y89.865 E25.90275
G1 X105.942 Y89.414 E25.97604
G1 X106.616 Y89.03 E26.04935
G1 X107.326 Y88.718 E26.12264
G1 X108.064 Y88.48 E26.19591
G1 X108.823 Y88.319 E26.26924
G1 X109.595 Y88.238 E26.34259
G1 X109.999 Y88.227 E26.38078
G1 X111.904 Y88.227 E26.56081
G1 X112.679 Y88.267 E26.63414
G1 X113.458 Y88.389 E26.70865
G1 X114.439 Y88.596 E26.8034
G1 X115.188 Y88.795 E26.87664
G1 X115.913 Y89.07 E26.94991
G1 X116.571 Y89.402 E27.01956
G1 X118.804 Y89.402 E27.23058
G1 X119.579 Y89.442 E27.30391
G1 X120.345 Y89.562 E27.37718
G1 X121.095 Y89.76 E27.45048
G1 X121.821 Y90.034 E27.52382
G1 X122.514 Y90.381 E27.59705
G1 X123.168 Y90.798 E27.67035
G1 X123.274 Y90.882 E27.68313
G1 X123.425 Y90.786 E27.70004
G1 X124.102 Y90.406 E27.77341
G1 X125.067 Y90.007 E27.87209
G1 X125.1 Y89.996 E27.87538
G1 X125.848 Y89.789 E27.94872
G1 X126.541 Y89.663 E28.01528
G1 X127.377 Y89.573 E28.09474
G1 X127.9 Y89.546 E28.14423
G1 X128.705 Y89.548 E28.2203
G1 X129.227 Y89.577 E28.26971
G1 X129.981 Y89.657 E28.34136
G1 X130.254 Y89.7 E28.36748
G1 X131.013 Y89.86 E28.44078
G1 X131.878 Y90.146 E28.52687
G1 X132.315 Y90.346 E28.57229
G1 X132.672 Y90.002 E28.61914
G1 X133.283 Y89.525 E28.69239
G1 X133.94 Y89.112 E28.76572
G1 X134.636 Y88.77 E28.83901
G1 X135.363 Y88.5 E28.91229
G1 X136.114 Y88.308 E28.98555
G1 X136.881 Y88.193 E29.05884
G1 X137.607 Y88.158 E29.12752
G1 X138.035 Y88.158 E29.16797
G1 X138.81 Y88.198 E29.24131
G1 X139.576 Y88.317 E29.31456
G1 X140.326 Y88.515 E29.38786
G1 X141.052 Y88.789 E29.46119
G1 X141.745 Y89.136 E29.53443
G1 X142.399 Y89.553 E29.60773
G1 X143.007 Y90.035 E29.68105
G1 X143.394 Y90.4 E29.73132
G1 X143.747 Y90.4 E29.76468
G1 X144.522 Y90.44 E29.83802
G1 X145.288 Y90.559 E29.91127
G1 X146.038 Y90.757 E29.98457
G1 X146.764 Y91.031 E30.05791
G1 X147.457 Y91.378 E30.13114
G1 X148.111 Y91.795 E30.20444
G1 X148.719 Y92.277 E30.27776
G1 X149.171 Y92.707 E30.33672
G1 X149.69 Y93.283 E30.40999
G1 X150.148 Y93.909 E30.48329
G1 X150.538 Y94.58 E30.55663
G1 X150.858 Y95.286 E30.62988
G1 X151.103 Y96.022 E30.70318
G1 X151.271 Y96.78 E30.77655
G1 X151.36 Y97.55 E30.8498
G1 X151.375 Y98.028 E30.89499
G1 X151.375 Y124.882 E33.4327
G1 X151.335 Y125.657 E33.50603
G1 X151.216 Y126.423 E33.57929
G1 X151.018 Y127.173 E33.65259
G1 X150.744 Y127.899 E33.72592
G1 X150.397 Y128.592 E33.79916
G1 X149.98 Y129.246 E33.87246
G1 X149.498 Y129.854 E33.94578
G1 X149.068 Y130.306 E34.00473
G1 X148.492 Y130.825 E34.078
G1 X147.866 Y131.283 E34.1513
G1 X147.195 Y131.673 E34.22464
G1 X146.489 Y131.993 E34.29789
G1 X145.753 Y132.238 E34.3712
G1 X144.995 Y132.406 E34.44457
G1 X144.225 Y132.495 E34.51782
G1 X143.747 Y132.51 E34.56301
G1 X137.785 Y132.51 E35.12642
G1 X137.01 Y132.47 E35.19975
G1 X136.244 Y132.351 E35.27301
G1 X135.494 Y132.153 E35.34631
G1 X134.768 Y131.879 E35.41964
G1 X134.091 Y131.54 E35.49119
G1 X133.923 Y131.683 E35.51204
G1 X133.364 Y132.073 E35.57645
G1 X133.141 Y132.214 E35.60139
G1 X132.464 Y132.594 E35.67475
G1 X131.499 Y132.993 E35.77343
G1 X131.466 Y133.004 E35.77672
G1 X130.718 Y133.211 E35.85006
G1 X130.025 Y133.337 E35.91662
G1 X129.189 Y133.427 E35.99608
G1 X128.666 Y133.454 E36.04557
G1 X127.861 Y133.452 E36.12164
G1 X127.339 Y133.423 E36.17105
G1 X126.585 Y133.343 E36.2427
G1 X126.312 Y133.3 E36.26882
G1 X125.553 Y133.14 E36.34212
G1 X124.688 Y132.854 E36.42821
G1 X124.653 Y132.84 E36.43178
G1 X123.949 Y132.515 E36.50505
G1 X123.504 Y132.262 E36.55343
G1 X123.283 Y132.126 E36.57795
G1 X122.644 Y131.686 E36.65126
G1 X122.468 Y131.536 E36.67312
G1 X121.962 Y131.804 E36.72723
G1 X121.243 Y132.096 E36.80056
G1 X120.498 Y132.311 E36.87384
G1 X119.735 Y132.449 E36.94711
G1 X118.781 Y132.51 E37.03745
G1 X97.38 Y132.51 E39.05984
G1 X96.605 Y132.47 E39.13318
G1 X95.839 Y132.351 E39.20643
G1 X95.089 Y132.153 E39.27974
G1 X94.363 Y131.879 E39.35307
G1 X93.686 Y131.54 E39.42462
G1 X93.518 Y131.683 E39.44546
G1 X92.959 Y132.073 E39.50988
G1 X92.736 Y132.214 E39.53481
G1 X92.059 Y132.594 E39.60817
G1 X91.094 Y132.993 E39.70685
G1 X91.061 Y133.004 E39.71014
G1 X90.313 Y133.211 E39.78348
G1 X89.62 Y133.337 E39.85005
G1 X88.784 Y133.427 E39.9295
G1 X88.261 Y133.454 E39.97899
G1 X87.456 Y133.452 E40.05507
G1 X86.934 Y133.423 E40.10447
G1 X86.18 Y133.343 E40.17612
G1 X85.907 Y133.3 E40.20224
G1 X85.148 Y133.14 E40.27554
G1 X84.283 Y132.854 E40.36164
G1 X84.248 Y132.84 E40.3652
G1 X83.544 Y132.515 E40.43848
G1 X83.099 Y132.262 E40.48685
G1 X82.878 Y132.126 E40.51137
G1 X82.239 Y131.686 E40.58469
G1 X82.093 Y131.561 E40.60285
G1 X81.561 Y131.844 E40.6598
G1 X80.842 Y132.136 E40.73313
G1 X80.097 Y132.352 E40.80643
G1 X79.334 Y132.49 E40.87971
G1 X78.56 Y132.549 E40.95306
G1 X77.785 Y132.528 E41.02633
G1 X77.016 Y132.427 E41.09962
G1 X76.261 Y132.247 E41.17297
G1 X75.515 Y131.986 E41.24765
G1 X75.408 Y131.942 E41.25859
G1 X74.707 Y131.61 E41.33189
G1 X74.044 Y131.208 E41.40516
G1 X73.425 Y130.74 E41.47849
G1 X72.858 Y130.211 E41.55177
G1 X72.349 Y129.626 E41.62505
G1 X71.902 Y128.992 E41.69836
G1 X71.523 Y128.315 E41.77167
G1 X71.216 Y127.603 E41.84495
G1 X70.984 Y126.863 E41.91823
G1 X70.829 Y126.103 E41.99153
G1 X70.745 Y124.982 E42.09776
G1 X70.745 Y122.194 E42.36123
G1 X70.785 Y121.419 E42.43456
G1 X70.904 Y120.653 E42.50782
G1 X71.102 Y119.903 E42.58112
G1 X71.376 Y119.177 E42.65445
G1 X71.723 Y118.484 E42.72769
G1 X71.773 Y118.405 E42.73653
G1 X71.682 Y117.888 E42.78614
G1 X71.625 Y116.964 E42.87362
G1 X71.625 Y104.391 E44.06177
G1 X71.639 Y104.128 E44.08666
G1 X71.427 Y103.723 E44.12986
G1 X71.141 Y103.002 E44.20315
G1 X70.931 Y102.256 E44.27639
G1 X70.799 Y101.492 E44.34966
G1 X70.745 Y100.593 E44.43477
G1 X70.745 Y97.804 E44.69833
G1 X70.785 Y97.029 E44.77166
G1 X70.904 Y96.263 E44.84492
G1 X71.102 Y95.513 E44.91822
G1 X71.376 Y94.787 E44.99155
G1 X71.723 Y94.094 E45.06479
G1 X72.14 Y93.44 E45.13809
G1 X72.622 Y92.832 E45.21141
G1 X73.164 Y92.277 E45.28472
G1 X73.76 Y91.78 E45.35805
G0 F4500 X74.099 Y91.966
G1 F1800 X74.738 Y91.559 E45.42965
G1 X75.519 Y91.177 E45.51181
G1 X75.625 Y91.133 E45.52265
G1 X76.339 Y90.88 E45.59424
G1 X77.076 Y90.704 E45.66584
G1 X77.827 Y90.606 E45.73741
G1 X78.584 Y90.588 E45.80897
G1 X79.339 Y90.65 E45.88056
G1 X80.083 Y90.791 E45.95212
G1 X80.808 Y91.01 E46.02369
G1 X81.506 Y91.304 E46.09526
G1 X82.169 Y91.67 E46.16683
G1 X82.277 Y91.745 E46.17925
G1 X82.508 Y91.552 E46.2077
G1 X82.985 Y91.223 E46.26246
G1 X83.208 Y91.082 E46.28739
G1 X83.868 Y90.711 E46.35894
G1 X84.773 Y90.339 E46.4514
G1 X84.806 Y90.328 E46.45469
G1 X85.908 Y90.056 E46.56195
G1 X86.193 Y90.009 E46.58925
G1 X86.99 Y89.923 E46.665
G1 X87.513 Y89.896 E46.71449
G1 X88.281 Y89.897 E46.78707
G1 X88.803 Y89.926 E46.83647
G1 X89.521 Y90.002 E46.9047
G1 X89.794 Y90.045 E46.93082
G1 X90.535 Y90.203 E47.00242
G1 X91.343 Y90.471 E47.08287
G1 X91.378 Y90.485 E47.08643
G1 X92.065 Y90.803 E47.15797
G1 X92.694 Y91.172 E47.22688
G1 X93.318 Y91.603 E47.29855
G1 X93.595 Y91.841 E47.33306
G1 X93.848 Y91.68 E47.3614
G1 X94.526 Y91.342 E47.43299
G1 X95.235 Y91.078 E47.50449
G1 X95.969 Y90.89 E47.57609
G1 X96.718 Y90.781 E47.64761
G1 X97.38 Y90.75 E47.71024
G1 X104.852 Y90.75 E48.41634
G1 X104.975 Y90.629 E48.43265
G1 X105.543 Y90.128 E48.50422
G1 X106.161 Y89.69 E48.5758
G1 X106.821 Y89.319 E48.64735
G1 X107.517 Y89.02 E48.71894
G1 X108.241 Y88.796 E48.79055
G1 X108.984 Y88.649 E48.86213
G1 X109.999 Y88.577 E48.95829
G1 X111.904 Y88.577 E49.13831
G1 X112.66 Y88.617 E49.20985
G1 X113.385 Y88.732 E49.27922
G1 X114.366 Y88.939 E49.37397
G1 X115.098 Y89.134 E49.44555
G1 X115.805 Y89.405 E49.5171
G1 X116.484 Y89.752 E49.58916
G1 X118.804 Y89.752 E49.8084
G1 X119.561 Y89.792 E49.88004
