;FLAVOR:UltiGCode
;TIME:3199
;MATERIAL:5287
;MATERIAL2:0
;NOZZLE_DIAMETER:0.4
;MINX:86.447
;MINY:96.15
;MINZ:0.27
;MAXX:137.823
;MAXY:126.847
;MAXZ:34.92
;Generated with Cura_SteamEngine 4.13.1
M82 ;absolute extrusion mode
G0 F3000 Y50 ;avoid prime blob
G92 E0
G92 E0
G10
;LAYER_COUNT:232
;LAYER:0
M107
G0 F4500 X91.516 Y102.995 Z0.27
;TYPE:SKIRT
G11
G1 F1800 X91.934 Y102.669 E0.05009
G1 X92.397 Y102.408 E0.10032
G1 X92.867 Y102.228 E0.14788
G1 X93.75 Y101.962 E0.23503
G1 X98.054 Y100.742 E0.65778
G1 X98.744 Y100.557 E0.72529
G1 X99.339 Y100.451 E0.7824
G1 X99.979 Y100.394 E0.84312
G1 X101.558 Y100.27 E0.9928
G1 X104.272 Y99.981 E1.25072
G1 X106.997 Y99.611 E1.51059
G1 X109.656 Y99.175 E1.76523
G1 X112.365 Y98.651 E2.02597
G1 X114.996 Y98.064 E2.28071
G1 X117.662 Y97.391 E2.54055
G1 X120.281 Y96.649 E2.79779
G1 X121.059 Y96.408 E2.87476
G1 X121.468 Y96.289 E2.91501
G1 X121.987 Y96.18 E2.96513
G1 X122.517 Y96.15 E3.01529
G1 X123.263 Y96.243 E3.08633
G1 X124.16 Y96.456 E3.17346
G1 X128.473 Y97.546 E3.59385
G1 X129.166 Y97.73 E3.66161
G1 X129.667 Y97.904 E3.71173
G1 X130.136 Y98.152 E3.76186
G1 X130.563 Y98.467 E3.81201
G1 X130.932 Y98.837 E3.86139
G1 X131.533 Y99.535 E3.94843
G1 X134.396 Y102.968 E4.37086
G1 X134.84 Y103.515 E4.43744
G1 X135.142 Y103.951 E4.48756
G1 X135.426 Y104.561 E4.55114
G1 X135.562 Y104.946 E4.58973
G1 X136.236 Y106.933 E4.78801
G1 X137.174 Y109.457 E5.04247
G1 X137.541 Y110.382 E5.13651
G1 X137.73 Y111.039 E5.20111
G1 X137.766 Y111.233 E5.21976
G1 X137.823 Y111.76 E5.26985
G1 X137.801 Y112.291 E5.32007
G1 X137.699 Y112.811 E5.37015
G1 X137.52 Y113.311 E5.42033
G1 X137.293 Y113.743 E5.46645
G1 X136.652 Y114.818 E5.58473
G1 X136.05 Y115.766 E5.69085
G1 X135.064 Y117.252 E5.85938
G1 X134.794 Y117.648 E5.90467
G1 X134.463 Y118.062 E5.95476
G1 X134.074 Y118.423 E6.00491
G1 X133.634 Y118.72 E6.05508
G1 X133.27 Y118.902 E6.09354
G1 X132.481 Y119.24 E6.17465
G1 X131.194 Y119.811 E6.3077
G1 X129.815 Y120.389 E6.449
G1 X125.642 Y122.06 E6.87379
G1 X125.013 Y122.301 E6.93745
G1 X124.505 Y122.453 E6.98756
G1 X123.946 Y122.529 E7.04087
G1 X123.111 Y122.575 E7.1199
G1 X120.404 Y122.764 E7.37633
G1 X117.681 Y123.032 E7.6349
G1 X114.969 Y123.376 E7.89323
G1 X112.256 Y123.799 E8.15271
G1 X109.607 Y124.289 E8.40729
G1 X106.926 Y124.862 E8.66636
G1 X104.27 Y125.511 E8.92474
G1 X102.149 Y126.086 E9.13241
G1 X100.487 Y126.557 E9.29565
G1 X99.841 Y126.73 E9.35885
G1 X99.319 Y126.828 E9.40904
G1 X98.789 Y126.847 E9.45916
G1 X98.262 Y126.786 E9.50929
G1 X97.772 Y126.655 E9.55723
G1 X96.893 Y126.349 E9.64518
G1 X92.686 Y124.802 E10.06877
G1 X92.046 Y124.557 E10.13353
G1 X91.566 Y124.331 E10.18366
G1 X91.125 Y124.035 E10.23386
G1 X90.734 Y123.676 E10.28402
G1 X90.408 Y123.271 E10.33315
G1 X89.874 Y122.499 E10.42186
G1 X87.373 Y118.766 E10.84648
G1 X87.017 Y118.219 E10.90815
G1 X86.761 Y117.754 E10.95831
G1 X86.579 Y117.255 E11.00851
G1 X86.473 Y116.735 E11.05866
G1 X86.447 Y116.222 E11.1072
G1 X86.468 Y115.253 E11.19879
G1 X86.635 Y110.851 E11.61508
G1 X86.673 Y110.126 E11.68369
G1 X86.74 Y109.6 E11.7338
G1 X86.886 Y109.09 E11.78393
G1 X87.107 Y108.607 E11.83412
G1 X87.385 Y108.18 E11.88227
G1 X87.96 Y107.423 E11.9721
G1 X90.752 Y103.874 E12.39883
G1 X91.152 Y103.381 E12.45882
G1 X91.516 Y102.995 E12.50896
G0 F4500 X91.771 Y103.237
G1 F1800 X92.171 Y102.932 E12.5565
G1 X92.615 Y102.694 E12.6041
G1 X92.969 Y102.563 E12.63977
G1 X93.845 Y102.298 E12.72626
G1 X98.145 Y101.08 E13.1486
G1 X98.835 Y100.895 E13.2161
G1 X99.371 Y100.8 E13.26755
G1 X100.006 Y100.743 E13.32779
G1 X101.587 Y100.619 E13.47766
G1 X104.321 Y100.327 E13.73749
G1 X107.031 Y99.96 E13.99592
G1 X109.739 Y99.516 E14.25525
G1 X112.413 Y98.999 E14.51262
G1 X115.117 Y98.395 E14.77444
G1 X117.701 Y97.743 E15.02628
G1 X120.406 Y96.977 E15.29196
G1 X121.157 Y96.744 E15.36627
G1 X121.566 Y96.625 E15.40652
G1 X122.059 Y96.524 E15.45407
G1 X122.562 Y96.501 E15.50166
G1 X123.182 Y96.584 E15.56077
G1 X124.074 Y96.795 E15.64739
G1 X128.383 Y97.884 E16.06739
G1 X129.076 Y98.068 E16.13515
G1 X129.551 Y98.236 E16.18276
G1 X129.993 Y98.476 E16.23029
G1 X130.392 Y98.784 E16.27793
G1 X130.667 Y99.065 E16.31508
G1 X131.264 Y99.759 E16.40159
G1 X134.124 Y103.189 E16.82362
G1 X134.568 Y103.736 E16.8902
G1 X134.853 Y104.151 E16.93777
G1 X135.096 Y104.678 E16.99261
G1 X135.231 Y105.059 E17.03081
G1 X135.909 Y107.056 E17.23011
G1 X136.861 Y109.62 E17.48857
G1 X137.215 Y110.511 E17.57917
G1 X137.386 Y111.103 E17.6374
G1 X137.422 Y111.297 E17.65605
G1 X137.474 Y111.798 E17.70365
G1 X137.447 Y112.3 E17.75115
G1 X137.34 Y112.793 E17.79883
G1 X137.075 Y113.418 E17.86298
G1 X136.993 Y113.564 E17.8788
G1 X136.402 Y114.556 E17.98792
G1 X135.794 Y115.517 E18.09539
G1 X134.775 Y117.055 E18.26973
G1 X134.505 Y117.451 E18.31503
G1 X134.189 Y117.843 E18.36261
G1 X133.816 Y118.18 E18.41011
G1 X133.393 Y118.454 E18.45774
G1 X133.132 Y118.58 E18.48513
G1 X132.38 Y118.902 E18.56243
G1 X131.058 Y119.488 E18.69908
G1 X129.685 Y120.065 E18.83982
G1 X125.517 Y121.733 E19.26407
G1 X124.888 Y121.974 E19.32772
G1 X124.405 Y122.116 E19.3753
G1 X123.927 Y122.179 E19.42086
G1 X123.106 Y122.224 E19.49856
G1 X120.381 Y122.414 E19.7567
G1 X117.637 Y122.685 E20.01727
G1 X114.911 Y123.03 E20.27693
G1 X112.208 Y123.452 E20.53546
G1 X109.539 Y123.945 E20.79195
G1 X106.838 Y124.524 E21.05299
G1 X104.208 Y125.166 E21.30882
G1 X102.03 Y125.756 E21.52206
G1 X100.442 Y126.206 E21.67804
G1 X99.75 Y126.392 E21.74575
G1 X99.255 Y126.483 E21.79331
G1 X98.752 Y126.495 E21.84086
G1 X98.253 Y126.427 E21.88845
G1 X97.887 Y126.324 E21.92438
G1 X97.014 Y126.02 E22.01174
G1 X92.811 Y124.475 E22.43491
G1 X92.171 Y124.23 E22.49967
G1 X91.716 Y124.013 E22.5473
G1 X91.302 Y123.727 E22.59485
G1 X90.938 Y123.38 E22.64238
G1 X90.696 Y123.072 E22.67939
G1 X90.164 Y122.304 E22.76768
G1 X87.666 Y118.575 E23.19183
G1 X87.31 Y118.028 E23.25351
G1 X87.07 Y117.585 E23.30112
G1 X86.902 Y117.11 E23.34873
G1 X86.812 Y116.615 E23.39628
G1 X86.797 Y116.23 E23.43269
G1 X86.817 Y115.267 E23.52371
G1 X86.984 Y110.87 E23.93953
G1 X87.022 Y110.145 E24.00813
G1 X87.089 Y109.646 E24.05571
G1 X87.233 Y109.163 E24.10334
G1 X87.451 Y108.71 E24.15085
G1 X87.664 Y108.392 E24.18702
G1 X88.235 Y107.639 E24.27632
G1 X91.023 Y104.095 E24.70244
G1 X91.423 Y103.602 E24.76243
G1 X91.771 Y103.237 E24.81009
G0 F4500 X97.706 Y111.328
;TYPE:SUPPORT
G1 F1800 X98.253 Y111.038 E24.8686
G1 X98.835 Y110.876 E24.92569
G1 X99.439 Y110.843 E24.98285
G1 X100.04 Y110.942 E25.04041
G1 X100.601 Y111.166 E25.0975
G1 X101.108 Y111.509 E25.15534
G1 X101.52 Y111.946 E25.2121
G1 X101.836 Y112.468 E25.26976
G1 X102.028 Y113.04 E25.32678
G1 X102.094 Y113.645 E25.38429
G1 X102.028 Y114.249 E25.44171
G1 X101.835 Y114.821 E25.49876
G1 X101.519 Y115.346 E25.55666
G1 X101.111 Y115.778 E25.61282
G1 X100.601 Y116.123 E25.671
G1 X100.04 Y116.347 E25.72809
G1 X99.439 Y116.446 E25.78565
G1 X98.835 Y116.413 E25.84281
G1 X98.253 Y116.251 E25.8999
G1 X97.706 Y115.961 E25.95841
G1 X97.253 Y115.576 E26.01459
G1 X96.885 Y115.093 E26.07197
G1 X96.629 Y114.54 E26.12956
G1 X96.499 Y113.946 E26.18702
G1 X96.499 Y113.343 E26.244
G1 X96.629 Y112.751 E26.30128
G1 X96.887 Y112.194 E26.35929
G1 X97.253 Y111.713 E26.4164
G1 X97.706 Y111.328 E26.47258
G0 F4500 X97.986 Y111.338
G1 F1800 X97.986 Y115.95 E26.90842
G0 F4500 X96.723 Y114.317
G1 F1800 X101.856 Y114.317 E27.39349
G0 F4500 X100.319 Y116.084
G1 F1800 X100.319 Y111.206 E27.85446
G0 F4500 X101.364 Y111.984
G1 F1800 X97.223 Y111.984 E28.24578
G0 F4500 X108.836 Y109.795
G1 F1800 X109.382 Y109.817 E28.29742
G1 X110.069 Y110.554 E28.39263
G1 X110.015 Y111.303 E28.4636
G1 X110.051 Y111.729 E28.504
G1 X109.928 Y113.467 E28.66865
G1 X109.927 Y113.822 E28.7022
G1 X109.881 Y114.662 E28.7817
G1 X109.312 Y115.187 E28.85486
G1 X109.475 Y110.931 E29.25735
G1 X109.384 Y110.611 E29.28878
G1 X108.836 Y109.795 E29.38167
G0 F4500 X109.651 Y110.311
G1 F1800 X109.651 Y114.684 E29.79492
G0 F4500 X109.759 Y114.317
G1 F1800 X109.486 Y114.317 E29.82072
G0 F4500 X109.575 Y111.984
G1 F1800 X109.891 Y111.984 E29.85058
G0 F4500 X120.325 Y109.695
G1 F1800 X120.313 Y109.088 E29.90795
G1 X120.432 Y108.493 E29.96529
G1 X120.679 Y107.936 E30.02287
G1 X121.036 Y107.45 E30.07986
G1 X121.492 Y107.048 E30.13731
G1 X122.021 Y106.754 E30.1945
G1 X122.602 Y106.583 E30.25173
G1 X123.214 Y106.537 E30.30973
G1 X123.805 Y106.623 E30.36617
G1 X124.378 Y106.84 E30.42407
G1 X124.885 Y107.17 E30.48123
G1 X125.313 Y107.607 E30.53904
G1 X125.631 Y108.114 E30.59559
G1 X125.836 Y108.688 E30.65319
G1 X125.913 Y109.295 E30.71101
G1 X125.86 Y109.891 E30.76756
G1 X125.676 Y110.472 E30.82515
G1 X125.372 Y110.999 E30.88264
G1 X124.966 Y111.443 E30.9395
G1 X124.462 Y111.799 E30.99781
G1 X123.911 Y112.029 E31.05423
G1 X123.313 Y112.138 E31.11168
G1 X122.699 Y112.117 E31.16973
G1 X122.117 Y111.966 E31.22655
G1 X121.578 Y111.692 E31.28369
G1 X121.103 Y111.304 E31.34165
G1 X120.733 Y110.834 E31.39818
G1 X120.465 Y110.281 E31.45625
G1 X120.325 Y109.695 E31.51319
G1 X120.464 Y109.651
G1 X125.741 Y109.651 E32.01186
G0 F4500 X124.836 Y107.318
G1 F1800 X121.397 Y107.318 E32.33685
G1 X121.316 Y107.389
G1 X121.316 Y111.296 E32.70606
G0 F4500 X122.933 Y111.984
G1 F1800 X123.371 Y111.984 E32.74745
G0 F4500 X123.649 Y111.935
G1 F1800 X123.649 Y106.742 E33.23819
G0 F4500 X133.304 Y110.811
G1 F1800 X133.786 Y111.118 E33.29219
G1 X134.134 Y111.828 E33.36691
G1 X133.585 Y112.666 E33.46159
G1 X133.441 Y113 E33.49596
G1 X132.833 Y113.922 E33.60032
G1 X132.56 Y114.309 E33.64508
G1 X132.123 Y114.999 E33.72226
G1 X131.782 Y115.513 E33.78055
G1 X131.027 Y115.673 E33.85348
G1 X133.289 Y112.08 E34.25471
G1 X133.367 Y111.756 E34.2862
G1 X133.304 Y110.811 E34.3757
G0 F4500 X133.456 Y111.984
G1 F1800 X133.863 Y111.984 E34.41416
G0 F4500 X132.981 Y112.83
G1 F1800 X132.981 Y113.444 E34.47218
G0 F4500 X132.388 Y114.317
G1 F1800 X132.045 Y114.317 E34.5046
G10
;MESH:Whitney1M Turquoise.stl
G0 F4500 X129.848 Y117.209
G0 X123.932 Y119.67
G0 X109.07 Y116.839
G0 X107.856 Y116.794
G0 X104.325 Y121.162
G11
G0 X104.38 Y121.245
;TYPE:WALL-INNER
G1 F1800 X98.941 Y122.786 E35.03881
G1 X93.633 Y120.836 E35.5732
G1 X90.487 Y116.14 E36.10735
G1 X90.702 Y110.488 E36.64185
G1 X94.195 Y106.045 E37.17593
G1 X99.636 Y104.504 E37.71033
G1 X104.944 Y106.453 E38.24468
G1 X108.09 Y111.15 E38.77891
G1 X107.874 Y116.8 E39.31323
G1 X104.38 Y121.245 E39.84752
G10
G0 F4500 X104.325 Y121.162
G0 X99.765 Y122.017
G0 X100.231 Y123.663
G0 X99.451 Y116.627
G0 X99.543 Y118.326
G0 X98.595 Y117.877
G11
G0 X98.611 Y117.779
G1 F1800 X99.515 Y117.827 E39.93307
G1 X100.409 Y117.681 E40.01867
G1 X101.25 Y117.346 E40.10422
G1 X102.001 Y116.837 E40.18995
G1 X102.623 Y116.18 E40.27545
G1 X103.09 Y115.403 E40.36112
G1 X103.379 Y114.545 E40.44667
G1 X103.477 Y113.645 E40.53223
G1 X103.379 Y112.744 E40.61787
G1 X103.09 Y111.886 E40.70343
G1 X102.623 Y111.11 E40.78902
G1 X102.001 Y110.452 E40.87458
G1 X101.25 Y109.943 E40.96032
G1 X100.409 Y109.608 E41.04586
G1 X99.515 Y109.462 E41.13147
G1 X98.611 Y109.51 E41.21701
G1 X97.738 Y109.753 E41.30265
G1 X96.937 Y110.177 E41.38829
G1 X96.248 Y110.763 E41.47377
G1 X95.699 Y111.485 E41.55948
G1 X95.318 Y112.307 E41.6451
G1 X95.124 Y113.192 E41.73072
G1 X95.124 Y114.097 E41.81624
G1 X95.318 Y114.982 E41.90186
G1 X95.699 Y115.804 E41.98748
G1 X96.248 Y116.526 E42.07319
G1 X96.937 Y117.112 E42.15867
G1 X97.738 Y117.536 E42.24431
G1 X98.611 Y117.779 E42.32995
G0 F4500 X98.664 Y117.456
;TYPE:WALL-OUTER
G1 F1800 X99.497 Y117.501 E42.40878
G1 X100.322 Y117.366 E42.48778
G1 X101.097 Y117.057 E42.56662
G1 X101.789 Y116.588 E42.64562
G1 X102.363 Y115.982 E42.7245
G1 X102.793 Y115.266 E42.80342
G1 X103.06 Y114.475 E42.88232
G1 X103.15 Y113.645 E42.96121
G1 X103.06 Y112.814 E43.0402
G1 X102.793 Y112.023 E43.11909
G1 X102.363 Y111.308 E43.19794
G1 X101.789 Y110.701 E43.27689
G1 X101.097 Y110.232 E43.35588
G1 X100.322 Y109.923 E43.43473
G1 X99.497 Y109.788 E43.51373
G1 X98.664 Y109.833 E43.59256
G1 X97.859 Y110.057 E43.67152
G1 X97.12 Y110.448 E43.75053
G1 X96.485 Y110.988 E43.8293
G1 X95.979 Y111.654 E43.90835
G1 X95.628 Y112.411 E43.9872
G1 X95.449 Y113.227 E44.06614
G1 X95.449 Y114.062 E44.14505
G1 X95.628 Y114.878 E44.224
G1 X95.979 Y115.635 E44.30285
G1 X96.485 Y116.301 E44.38189
G1 X97.12 Y116.841 E44.46066
G1 X97.859 Y117.232 E44.53967
G1 X98.664 Y117.456 E44.61863
G0 F4500 X98.863 Y117.466
G10
G0 X98.84 Y117.89
G0 X100.542 Y118.162
G0 X100.087 Y116.523
G0 X101.959 Y123.174
G0 X101.493 Y121.528
G0 X104.325 Y121.162
G11
G0 X104.571 Y121.529
G1 F1800 X98.929 Y123.128 E45.1728
G1 X93.422 Y121.104 E45.72725
G1 X90.158 Y116.233 E46.28135
G1 X90.381 Y110.371 E46.8357
G1 X94.006 Y105.76 E47.38998
G1 X99.648 Y104.162 E47.94412
G1 X105.155 Y106.185 E48.49853
G1 X108.419 Y111.057 E49.05271
G1 X108.195 Y116.918 E49.60698
G1 X104.571 Y121.529 E50.16119
G0 F4500 X104.379 Y121.583
G0 X104.18 Y120.949
;TYPE:SKIN
G1 F1800 X98.954 Y122.428 E50.65905
G1 X93.853 Y120.555 E51.15716
G1 X90.831 Y116.044 E51.65487
G1 X91.038 Y110.612 E52.15316
G1 X94.395 Y106.341 E52.65112
G1 X99.623 Y104.862 E53.14915
G1 X104.724 Y106.734 E53.64722
G1 X107.746 Y111.246 E54.14501
G1 X107.538 Y116.676 E54.64312
G1 X104.18 Y120.949 E55.14128
G10
G0 F4500 X102.431 Y121.263
G0 X102.897 Y122.908
G0 X100.481 Y116.366
G0 X101.115 Y117.955
G0 X101.41 Y117.649
G11
G1 F1800 X102.223 Y117.097 E55.23136
G1 X102.895 Y116.386 E55.32104
G1 X103.401 Y115.547 E55.41085
G1 X103.713 Y114.619 E55.50059
G1 X103.819 Y113.645 E55.5904
G1 X103.713 Y112.67 E55.6803
G1 X103.401 Y111.742 E55.77004
G1 X102.895 Y110.904 E55.85978
G1 X102.223 Y110.192 E55.94952
G1 X101.41 Y109.64 E56.0396
G1 X100.5 Y109.278 E56.12937
G1 X99.534 Y109.12 E56.2191
G1 X98.556 Y109.172 E56.30887
G1 X97.612 Y109.435 E56.3987
G1 X96.745 Y109.894 E56.48862
G1 X95.999 Y110.528 E56.57836
G1 X95.406 Y111.308 E56.66818
G1 X94.994 Y112.198 E56.75808
G1 X94.784 Y113.155 E56.84789
G1 X94.784 Y114.134 E56.93763
G1 X94.994 Y115.091 E57.02744
G1 X95.406 Y115.981 E57.11734
G1 X95.999 Y116.761 E57.20715
G1 X96.745 Y117.395 E57.2969
G1 X97.612 Y117.854 E57.38682
G1 X98.556 Y118.117 E57.47665
G1 X99.534 Y118.169 E57.56642
G1 X100.5 Y118.011 E57.65615
G1 X101.41 Y117.649 E57.74592
G10
G0 F4500 X102.654 Y116.204
G0 X103.126 Y115.419
G0 X103.418 Y114.553
G0 X103.517 Y113.645
G0 X103.02 Y110.81
G0 X101.664 Y111.835
G0 X107.356 Y107.906
G0 X105.937 Y108.857
G0 X105.17 Y107.533
G11
G0 X105.102 Y107.577
G1 F1800 X104.25 Y106.725 E57.85637
G1 X104.188 Y106.663
G0 F4500 X103.469 Y106.439
G1 F1800 X106.104 Y109.074 E58.19795
G1 X106.166 Y109.136
G0 F4500 X106.22 Y109.101
G0 X107.174 Y110.526
G0 X107.106 Y110.57
G1 F1800 X102.688 Y106.152 E58.77068
G1 X102.626 Y106.09
G0 F4500 X101.906 Y105.865
G1 F1800 X107.577 Y111.537 E59.50589
G0 F4500 X107.559 Y112.014
G1 F1800 X101.124 Y105.579 E60.34009
G1 X101.062 Y105.517
G0 F4500 X100.343 Y105.293
G1 F1800 X107.541 Y112.491 E61.27319
G0 F4500 X107.523 Y112.968
G1 F1800 X99.59 Y105.035 E62.30158
G0 F4500 X99.204 Y105.143
G1 F1800 X107.504 Y113.444 E63.3776
G0 F4500 X107.486 Y113.921
G1 F1800 X98.818 Y105.252 E64.50134
G0 F4500 X98.432 Y105.361
G1 F1800 X107.468 Y114.397 E65.67271
G0 F4500 X107.45 Y114.875
G1 F1800 X98.046 Y105.471 E66.89178
G1 X97.984 Y105.409
G10
G0 F4500 X97.984 Y105.404
G0 X99.616 Y105.046
G0 X100.205 Y103.439
G0 X100.688 Y111.006
G0 X101.483 Y109.501
G0 X103.153 Y111.185
G11
G0 X103.224 Y111.144
G1 F1800 X107.432 Y115.351 E67.43722
G0 F4500 X107.413 Y115.828
G1 F1800 X103.688 Y112.103 E67.92011
G1 X103.626 Y112.041
G0 F4500 X103.883 Y112.793
G1 F1800 X107.395 Y116.304 E68.37532
G0 F4500 X107.309 Y116.713
G1 F1800 X103.944 Y113.349 E68.81147
G0 F4500 X103.953 Y113.853
G1 F1800 X107.091 Y116.99 E69.21819
G0 F4500 X106.873 Y117.268
G1 F1800 X103.905 Y114.299 E69.60301
G0 F4500 X103.84 Y114.729
G1 F1800 X106.655 Y117.545 E69.968
G0 F4500 X106.437 Y117.822
G1 F1800 X103.715 Y115.1 E70.32086
G0 F4500 X103.591 Y115.47
G1 F1800 X106.22 Y118.099 E70.66167
G0 F4500 X106.002 Y118.376
G1 F1800 X103.429 Y115.803 E70.99522
G0 F4500 X103.243 Y116.112
G1 F1800 X105.784 Y118.653 E71.32462
