;FLAVOR:UltiGCode
;TIME:3266
;MATERIAL:5462
;MATERIAL2:0
;NOZZLE_DIAMETER:0.4
;MINX:83.135
;MINY:96.679
;MINZ:0.27
;MAXX:139.865
;MAXY:126.321
;MAXZ:35.97
;Generated with Cura_SteamEngine 4.13.1
M82 ;absolute extrusion mode
G0 F3000 Y50 ;avoid prime blob
G92 E0
G92 E0
G10
;LAYER_COUNT:239
;LAYER:0
M107
G0 F4500 X88.205 Y102.474 Z0.27
;TYPE:SKIRT
G11
G1 F1800 X88.624 Y102.147 E0.05023
G1 X89.086 Y101.887 E0.10032
G1 X89.557 Y101.707 E0.14797
G1 X90.433 Y101.442 E0.23446
G1 X94.768 Y100.215 E0.66021
G1 X95.436 Y100.036 E0.72556
G1 X95.957 Y99.938 E0.77566
G1 X96.514 Y99.92 E0.82833
G1 X99.376 Y100.02 E1.09895
G1 X102.111 Y100.038 E1.35741
G1 X104.812 Y99.979 E1.61272
G1 X107.572 Y99.841 E1.87386
G1 X110.272 Y99.628 E2.12981
G1 X112.983 Y99.338 E2.38746
G1 X115.702 Y98.968 E2.64677
G1 X118.372 Y98.528 E2.90249
G1 X121.076 Y98.004 E3.16277
G1 X123.692 Y97.419 E3.41609
G1 X126.136 Y96.803 E3.65427
G1 X126.292 Y96.766 E3.66942
G1 X126.816 Y96.683 E3.71956
G1 X127.346 Y96.679 E3.76964
G1 X127.871 Y96.755 E3.81977
G1 X128.259 Y96.865 E3.85788
G1 X129.126 Y97.166 E3.94461
G1 X133.547 Y98.792 E4.38976
G1 X134.166 Y99.03 E4.45243
G1 X134.646 Y99.257 E4.50261
G1 X135.086 Y99.554 E4.55277
G1 X135.476 Y99.913 E4.60286
G1 X135.795 Y100.307 E4.65077
G1 X136.309 Y101.048 E4.73599
G1 X138.911 Y104.931 E5.1777
G1 X139.295 Y105.521 E5.24423
G1 X139.551 Y105.986 E5.29439
G1 X139.733 Y106.485 E5.34458
G1 X139.839 Y107.005 E5.39473
G1 X139.865 Y107.517 E5.44318
G1 X139.845 Y108.446 E5.53099
G1 X139.667 Y113.114 E5.97244
G1 X139.632 Y113.793 E6.03669
G1 X139.565 Y114.32 E6.08689
G1 X139.42 Y114.83 E6.137
G1 X139.199 Y115.313 E6.18719
G1 X138.918 Y115.746 E6.23597
G1 X138.331 Y116.516 E6.32747
G1 X135.477 Y120.148 E6.76398
G1 X135.041 Y120.687 E6.82949
G1 X134.677 Y121.073 E6.87963
G1 X134.259 Y121.4 E6.92978
G1 X133.797 Y121.661 E6.97993
G1 X133.316 Y121.845 E7.02859
G1 X132.447 Y122.107 E7.11437
G1 X127.965 Y123.376 E7.55456
G1 X127.263 Y123.564 E7.62324
G1 X126.741 Y123.662 E7.67343
G1 X126.177 Y123.68 E7.72676
G1 X125.319 Y123.637 E7.80794
G1 X124.24 Y123.568 E7.91011
G1 X121.501 Y123.472 E8.16911
G1 X118.767 Y123.451 E8.42748
G1 X116.069 Y123.509 E8.6825
G1 X113.301 Y123.646 E8.94439
G1 X110.608 Y123.856 E9.19966
G1 X107.89 Y124.145 E9.45795
G1 X105.18 Y124.511 E9.71637
G1 X102.506 Y124.95 E9.97245
G1 X99.834 Y125.466 E10.22962
G1 X97.051 Y126.086 E10.49906
G1 X96.434 Y126.233 E10.559
G1 X95.91 Y126.317 E10.60915
G1 X95.38 Y126.321 E10.65924
G1 X94.854 Y126.246 E10.70945
G1 X94.457 Y126.133 E10.74845
G1 X93.56 Y125.82 E10.83823
G1 X89.37 Y124.279 E11.26012
G1 X88.735 Y124.036 E11.32437
G1 X88.255 Y123.81 E11.3745
G1 X87.815 Y123.514 E11.42462
G1 X87.424 Y123.155 E11.47478
G1 X87.1 Y122.755 E11.52342
G1 X86.572 Y121.995 E11.61087
G1 X84.088 Y118.286 E12.03272
G1 X83.706 Y117.7 E12.09882
G1 X83.451 Y117.235 E12.14894
G1 X83.268 Y116.737 E12.19908
G1 X83.162 Y116.217 E12.24923
G1 X83.135 Y115.701 E12.29806
G1 X83.156 Y114.742 E12.3887
G1 X83.325 Y110.29 E12.80972
G1 X83.361 Y109.605 E12.87454
G1 X83.429 Y109.079 E12.92466
G1 X83.574 Y108.568 E12.97486
G1 X83.795 Y108.086 E13.02497
G1 X84.075 Y107.657 E13.07338
G1 X84.642 Y106.911 E13.16193
G1 X87.419 Y103.38 E13.58644
G1 X87.841 Y102.86 E13.64972
G1 X88.205 Y102.474 E13.69986
G0 F4500 X88.46 Y102.716
G1 F1800 X88.861 Y102.411 E13.74747
G1 X89.304 Y102.173 E13.79499
G1 X89.658 Y102.042 E13.83066
G1 X90.529 Y101.779 E13.91664
G1 X94.858 Y100.553 E14.34182
G1 X95.526 Y100.374 E14.40718
G1 X96.021 Y100.283 E14.45474
G1 X96.585 Y100.274 E14.50804
G1 X99.362 Y100.37 E14.77063
G1 X102.116 Y100.388 E15.03088
G1 X104.838 Y100.328 E15.28818
G1 X107.583 Y100.191 E15.5479
G1 X110.299 Y99.977 E15.80536
G1 X113.037 Y99.684 E16.06558
G1 X115.727 Y99.319 E16.32211
G1 X118.46 Y98.868 E16.58387
G1 X121.15 Y98.347 E16.8428
G1 X123.786 Y97.757 E17.09807
G1 X126.216 Y97.144 E17.3349
G1 X126.372 Y97.107 E17.35005
G1 X126.87 Y97.03 E17.39767
G1 X127.374 Y97.032 E17.4453
G1 X127.87 Y97.115 E17.49282
G1 X128.145 Y97.196 E17.51991
G1 X129.005 Y97.495 E17.60595
G1 X133.421 Y99.119 E18.05059
G1 X134.04 Y99.357 E18.11326
G1 X134.495 Y99.574 E18.1609
G1 X134.909 Y99.86 E18.20845
G1 X135.272 Y100.209 E18.25603
G1 X135.507 Y100.507 E18.2919
G1 X136.019 Y101.242 E18.37655
G1 X138.618 Y105.122 E18.81786
G1 X139.002 Y105.712 E18.88439
G1 X139.242 Y106.155 E18.932
G1 X139.41 Y106.63 E18.97961
G1 X139.5 Y107.125 E19.02716
G1 X139.515 Y107.51 E19.06357
G1 X139.496 Y108.433 E19.15081
G1 X139.318 Y113.096 E19.59178
G1 X139.283 Y113.775 E19.65603
G1 X139.217 Y114.275 E19.70369
G1 X139.073 Y114.757 E19.75123
G1 X138.855 Y115.211 E19.79883
G1 X138.639 Y115.534 E19.83555
G1 X138.056 Y116.3 E19.92651
G1 X135.204 Y119.928 E20.36261
G1 X134.768 Y120.467 E20.42812
G1 X134.422 Y120.832 E20.47565
G1 X134.022 Y121.138 E20.52324
G1 X133.578 Y121.376 E20.57085
G1 X133.215 Y121.51 E20.60742
G1 X132.352 Y121.77 E20.69259
G1 X127.874 Y123.038 E21.1324
G1 X127.172 Y123.226 E21.20108
G1 X126.677 Y123.317 E21.24864
G1 X126.194 Y123.33 E21.2943
G1 X125.341 Y123.288 E21.375
G1 X124.237 Y123.218 E21.47954
G1 X121.517 Y123.122 E21.73674
G1 X118.761 Y123.101 E21.99719
G1 X116.044 Y123.159 E22.25401
G1 X113.294 Y123.295 E22.5142
G1 X110.579 Y123.507 E22.77155
G1 X107.841 Y123.798 E23.03174
G1 X105.146 Y124.162 E23.28873
G1 X102.458 Y124.604 E23.54616
G1 X99.727 Y125.131 E23.809
G1 X96.975 Y125.744 E24.07544
G1 X96.353 Y125.892 E24.13586
G1 X95.856 Y125.97 E24.1834
G1 X95.352 Y125.968 E24.23103
G1 X94.855 Y125.886 E24.27863
G1 X94.572 Y125.802 E24.30653
G1 X93.681 Y125.491 E24.39571
G1 X89.495 Y123.952 E24.81717
G1 X88.86 Y123.709 E24.88143
G1 X88.406 Y123.493 E24.92894
G1 X87.991 Y123.207 E24.97657
G1 X87.627 Y122.859 E25.02415
G1 X87.388 Y122.556 E25.06062
G1 X86.863 Y121.8 E25.1476
G1 X84.381 Y118.095 E25.56903
G1 X83.999 Y117.509 E25.63513
G1 X83.759 Y117.066 E25.68274
G1 X83.591 Y116.592 E25.73027
G1 X83.5 Y116.096 E25.77792
G1 X83.485 Y115.708 E25.81461
G1 X83.505 Y114.756 E25.9046
G1 X83.674 Y110.308 E26.32524
G1 X83.71 Y109.623 E26.39006
G1 X83.777 Y109.124 E26.43764
G1 X83.921 Y108.642 E26.48518
G1 X84.14 Y108.188 E26.53281
G1 X84.353 Y107.869 E26.56906
G1 X84.917 Y107.128 E26.65706
G1 X87.691 Y103.6 E27.08117
G1 X88.113 Y103.08 E27.14446
G1 X88.46 Y102.716 E27.19198
G0 F4500 X94.399 Y110.804
;TYPE:SUPPORT
G1 F1800 X94.938 Y110.518 E27.24964
G1 X95.524 Y110.355 E27.30712
G1 X96.128 Y110.322 E27.36429
G1 X96.731 Y110.421 E27.42203
G1 X97.292 Y110.645 E27.47912
G1 X97.793 Y110.985 E27.53633
G1 X98.21 Y111.427 E27.59376
G1 X98.524 Y111.946 E27.65108
G1 X98.717 Y112.52 E27.70831
G1 X98.783 Y113.124 E27.76573
G1 X98.717 Y113.728 E27.82314
G1 X98.524 Y114.301 E27.88028
G1 X98.21 Y114.821 E27.93769
G1 X97.794 Y115.262 E27.99498
G1 X97.293 Y115.601 E28.05214
G1 X96.729 Y115.826 E28.10952
G1 X96.128 Y115.925 E28.16708
G1 X95.524 Y115.892 E28.22425
G1 X94.94 Y115.73 E28.28152
G1 X94.401 Y115.444 E28.33918
G1 X93.938 Y115.052 E28.39651
G1 X93.573 Y114.572 E28.45349
G1 X93.318 Y114.022 E28.51078
G1 X93.188 Y113.426 E28.56843
G1 X93.188 Y112.822 E28.62551
G1 X93.318 Y112.226 E28.68315
G1 X93.573 Y111.676 E28.74044
G1 X93.94 Y111.193 E28.79777
G1 X94.399 Y110.804 E28.85463
G0 F4500 X95.653 Y110.488
G1 F1800 X95.653 Y115.758 E29.35264
G0 F4500 X93.609 Y114.317
G1 F1800 X98.351 Y114.317 E29.80076
G0 F4500 X97.986 Y114.855
G1 F1800 X97.986 Y111.394 E30.12782
G0 F4500 X98.383 Y111.984
G1 F1800 X93.586 Y111.984 E30.58114
G0 F4500 X105.527 Y109.279
G1 F1800 X106.101 Y109.303 E30.63543
G1 X106.743 Y110.039 E30.72772
G1 X106.702 Y110.78 E30.79786
G1 X106.739 Y111.065 E30.82501
G1 X106.57 Y114.142 E31.11623
G1 X106 Y114.668 E31.18953
G1 X106.163 Y110.41 E31.5922
G1 X106.072 Y110.09 E31.62364
G1 X105.527 Y109.279 E31.71598
G0 F4500 X105.945 Y109.651
G1 F1800 X106.22 Y109.651 E31.74196
G0 F4500 X106.243 Y111.984
G1 F1800 X106.547 Y111.984 E31.77069
G0 F4500 X115.713 Y113.321
G1 F1800 X115.821 Y111.298 E31.96214
G1 X115.787 Y110.942 E31.99593
G1 X115.879 Y109.254 E32.15569
G1 X115.879 Y109.161 E32.16447
G1 X116.424 Y108.675 E32.23348
G1 X116.259 Y112.972 E32.63985
G1 X116.35 Y113.292 E32.67128
G1 X116.851 Y114.038 E32.7562
G1 X116.321 Y114.015 E32.80634
G1 X115.713 Y113.321 E32.89353
G0 F4500 X115.925 Y111.984
G1 F1800 X116.156 Y111.984 E32.91536
G0 F4500 X116.246 Y109.651
G1 F1800 X115.998 Y109.651 E32.93879
G0 F4500 X123.833 Y109.861
G1 F1800 X123.967 Y109.245 E32.99837
G1 X124.235 Y108.669 E33.0584
G1 X124.613 Y108.17 E33.11756
G1 X125.098 Y107.76 E33.17757
G1 X125.649 Y107.467 E33.23655
G1 X126.265 Y107.296 E33.29696
G1 X126.89 Y107.262 E33.35611
G1 X127.516 Y107.365 E33.41606
G1 X128.102 Y107.598 E33.47566
G1 X128.627 Y107.954 E33.5356
G1 X129.057 Y108.409 E33.59476
G1 X129.383 Y108.949 E33.65437
G1 X129.585 Y109.551 E33.71438
G1 X129.653 Y110.176 E33.77379
G1 X129.585 Y110.807 E33.83376
G1 X129.385 Y111.402 E33.89308
G1 X129.057 Y111.945 E33.95303
G1 X128.63 Y112.396 E34.01172
G1 X128.102 Y112.754 E34.072
G1 X127.515 Y112.987 E34.13169
G1 X126.89 Y113.091 E34.19156
G1 X126.261 Y113.056 E34.25109
G1 X125.654 Y112.888 E34.31061
G1 X125.093 Y112.59 E34.37064
G1 X124.617 Y112.185 E34.4297
G1 X124.235 Y111.683 E34.48931
G1 X123.967 Y111.107 E34.54935
G1 X123.833 Y110.491 E34.60892
G1 X123.833 Y109.861 E34.66846
G0 F4500 X124.022 Y109.651
G1 F1800 X129.455 Y109.651 E35.18188
G0 F4500 X128.315 Y107.912
G1 F1800 X128.315 Y112.441 E35.60987
G0 F4500 X128.826 Y111.984
G1 F1800 X124.64 Y111.984 E36.00544
G0 F4500 X125.982 Y112.833
G1 F1800 X125.982 Y107.519 E36.50762
G10
;MESH:Whitney1M Turquoise.stl
G0 F4500 X105.759 Y116.319
G0 X104.545 Y116.274
G0 X101.015 Y120.64
G11
G0 X101.07 Y120.723
;TYPE:WALL-INNER
G1 F1800 X95.63 Y122.265 E37.04195
G1 X90.321 Y120.315 E37.57642
G1 X87.175 Y115.619 E38.11058
G1 X87.391 Y109.967 E38.64508
G1 X90.884 Y105.524 E39.17916
G1 X96.324 Y103.983 E39.71347
G1 X101.632 Y105.932 E40.24782
G1 X104.778 Y110.629 E40.78205
G1 X104.563 Y116.28 E41.31646
G1 X101.07 Y120.723 E41.85054
G10
G0 F4500 X101.015 Y120.64
G0 X96.455 Y121.496
G0 X96.921 Y123.142
G0 X96.14 Y116.106
G0 X96.232 Y117.805
G0 X95.284 Y117.356
G11
G0 X95.3 Y117.258
G1 F1800 X96.204 Y117.306 E41.93609
G1 X97.098 Y117.16 E42.02169
G1 X97.939 Y116.825 E42.10724
G1 X98.689 Y116.317 E42.19284
G1 X99.311 Y115.659 E42.27841
G1 X99.779 Y114.882 E42.36412
G1 X100.068 Y114.024 E42.44968
G1 X100.166 Y113.124 E42.53523
G1 X100.068 Y112.224 E42.62078
G1 X99.779 Y111.365 E42.70643
G1 X99.311 Y110.589 E42.79207
G1 X98.689 Y109.931 E42.87763
G1 X97.939 Y109.423 E42.96324
G1 X97.099 Y109.087 E43.04873
G1 X96.204 Y108.941 E43.13443
G1 X95.3 Y108.989 E43.21997
G1 X94.427 Y109.232 E43.30561
G1 X93.626 Y109.656 E43.39125
G1 X92.937 Y110.243 E43.47679
G1 X92.387 Y110.964 E43.56249
G1 X92.007 Y111.787 E43.64815
G1 X91.813 Y112.671 E43.73368
G1 X91.813 Y113.577 E43.81929
G1 X92.007 Y114.461 E43.90482
G1 X92.387 Y115.284 E43.99048
G1 X92.937 Y116.005 E44.07618
G1 X93.627 Y116.592 E44.16179
G1 X94.427 Y117.015 E44.2473
G1 X95.3 Y117.258 E44.33294
G0 F4500 X95.353 Y116.935
;TYPE:WALL-OUTER
G1 F1800 X96.186 Y116.98 E44.41177
G1 X97.011 Y116.845 E44.49077
G1 X97.786 Y116.536 E44.56962
G1 X98.477 Y116.068 E44.64848
G1 X99.051 Y115.461 E44.72743
G1 X99.482 Y114.745 E44.8064
G1 X99.749 Y113.954 E44.8853
G1 X99.839 Y113.124 E44.96419
G1 X99.749 Y112.294 E45.04309
G1 X99.482 Y111.502 E45.12207
G1 X99.051 Y110.787 E45.20096
G1 X98.477 Y110.18 E45.27991
G1 X97.786 Y109.712 E45.35878
G1 X97.011 Y109.402 E45.43766
G1 X96.186 Y109.267 E45.51666
G1 X95.353 Y109.312 E45.59549
G1 X94.548 Y109.536 E45.67445
G1 X93.81 Y109.927 E45.75338
G1 X93.174 Y110.468 E45.83228
G1 X92.667 Y111.133 E45.9113
G1 X92.317 Y111.891 E45.9902
G1 X92.138 Y112.706 E46.06906
G1 X92.138 Y113.542 E46.14806
G1 X92.317 Y114.357 E46.22691
G1 X92.667 Y115.115 E46.30581
G1 X93.174 Y115.78 E46.38483
G1 X93.81 Y116.321 E46.46374
G1 X94.548 Y116.711 E46.54262
G1 X95.353 Y116.935 E46.62158
G0 F4500 X95.552 Y116.945
G10
G0 X95.529 Y117.369
G0 X98.172 Y117.267
G0 X97.377 Y115.762
G0 X99.617 Y122.378
G0 X99.157 Y120.752
G0 X101.015 Y120.64
G11
G0 X101.259 Y121.008
G1 F1800 X95.618 Y122.607 E47.17566
G1 X90.11 Y120.583 E47.73019
G1 X86.846 Y115.712 E48.28429
G1 X87.07 Y109.85 E48.83865
G1 X90.695 Y105.239 E49.39293
G1 X96.336 Y103.641 E49.94698
G1 X101.843 Y105.664 E50.50139
G1 X105.107 Y110.536 E51.05557
G1 X104.884 Y116.397 E51.60984
G1 X101.259 Y121.008 E52.16411
G0 F4500 X101.067 Y121.062
G0 X100.87 Y120.427
;TYPE:SKIN
G1 F1800 X95.643 Y121.907 E52.66208
G1 X90.541 Y120.034 E53.16027
G1 X87.519 Y115.523 E53.65798
G1 X87.727 Y110.091 E54.15627
G1 X91.084 Y105.82 E54.65423
G1 X96.311 Y104.341 E55.15218
G1 X101.412 Y106.213 E55.65025
G1 X104.434 Y110.725 E56.14804
G1 X104.227 Y116.156 E56.64624
G1 X100.87 Y120.427 E57.1442
G10
G0 F4500 X99.121 Y120.741
G0 X99.587 Y122.386
G0 X97.172 Y115.844
G0 X97.806 Y117.433
G0 X98.099 Y117.128
G11
G1 F1800 X98.911 Y116.577 E57.23415
G1 X99.583 Y115.865 E57.32389
G1 X100.09 Y115.026 E57.41375
G1 X100.402 Y114.098 E57.50349
G1 X100.508 Y113.124 E57.5933
G1 X100.402 Y112.15 E57.68311
G1 X100.09 Y111.221 E57.77294
G1 X99.583 Y110.382 E57.8628
G1 X98.91 Y109.671 E57.95254
G1 X98.1 Y109.121 E58.04229
G1 X97.19 Y108.757 E58.13213
G1 X96.223 Y108.599 E58.22194
G1 X95.245 Y108.651 E58.31172
G1 X94.301 Y108.914 E58.40155
G1 X93.434 Y109.373 E58.49147
G1 X92.689 Y110.008 E58.5812
G1 X92.094 Y110.787 E58.67106
G1 X91.683 Y111.678 E58.761
G1 X91.473 Y112.634 E58.85072
G1 X91.473 Y113.614 E58.94055
G1 X91.683 Y114.57 E59.03027
G1 X92.094 Y115.461 E59.12022
G1 X92.689 Y116.24 E59.21007
G1 X93.435 Y116.875 E59.29987
G1 X94.301 Y117.333 E59.38967
G1 X95.245 Y117.596 E59.4795
G1 X96.223 Y117.648 E59.56927
G1 X97.189 Y117.49 E59.659
G1 X98.099 Y117.128 E59.74877
G10
G0 F4500 X99.342 Y115.683
G0 X99.815 Y114.898
G0 X100.107 Y114.032
G0 X100.206 Y113.124
G0 X99.708 Y110.287
G0 X98.355 Y111.317
G0 X104.043 Y107.384
G0 X102.624 Y108.335
G0 X102.22 Y107.553
G11
G0 X102.151 Y107.596
G1 F1800 X100.656 Y106.101 E59.94257
G1 X100.594 Y106.039
G0 F4500 X99.874 Y105.814
G1 F1800 X103.154 Y109.094 E60.36777
G1 X103.216 Y109.156
G0 F4500 X103.27 Y109.121
G0 X104.226 Y110.548
G0 X104.158 Y110.592
G1 F1800 X99.093 Y105.527 E61.02437
G1 X99.031 Y105.465
G0 F4500 X98.311 Y105.24
G1 F1800 X104.26 Y111.189 E61.79556
G0 F4500 X104.241 Y111.666
G1 F1800 X97.529 Y104.954 E62.66566
G1 X97.467 Y104.892
G0 F4500 X96.747 Y104.667
G1 F1800 X104.223 Y112.142 E63.63474
G0 F4500 X104.204 Y112.619
G1 F1800 X96.138 Y104.552 E64.68043
G0 F4500 X95.752 Y104.661
G1 F1800 X104.187 Y113.096 E65.7739
G0 F4500 X104.168 Y113.573
G1 F1800 X95.366 Y104.77 E66.915
G0 F4500 X94.98 Y104.88
G1 F1800 X104.15 Y114.049 E68.10368
G0 F4500 X104.132 Y114.526
G1 F1800 X94.594 Y104.989 E69.34006
G1 X94.532 Y104.927
G10
G0 F4500 X94.532 Y104.922
G0 X96.304 Y104.525
G0 X96.893 Y102.918
G0 X96.778 Y110.245
G0 X97.232 Y108.606
G0 X100.116 Y111.117
G11
G0 X100.187 Y111.076
G1 F1800 X104.114 Y115.003 E69.84913
G0 F4500 X104.096 Y115.48
G1 F1800 X100.468 Y111.852 E70.31944
G0 F4500 X100.595 Y112.474
G1 F1800 X104.077 Y115.957 E70.77089
G0 F4500 X103.919 Y116.293
G1 F1800 X100.655 Y113.03 E71.19395
G0 F4500 X100.624 Y113.494
G1 F1800 X103.701 Y116.57 E71.59277
G0 F4500 X103.483 Y116.847
G1 F1800 X100.576 Y113.941 E71.96955
G0 F4500 X100.484 Y114.343
G1 F1800 X103.265 Y117.125 E72.33013
G0 F4500 X103.048 Y117.402
G1 F1800 X100.359 Y114.713 E72.67871
G0 F4500 X100.235 Y115.085
G1 F1800 X102.83 Y117.679 E73.01505
G0 F4500 X102.612 Y117.956
G1 F1800 X100.05 Y115.394 E73.34717
G0 F4500 X99.863 Y115.703
G1 F1800 X102.394 Y118.233 E73.67521
G0 F4500 X102.176 Y118.511
G1 F1800 X99.668 Y116.002 E74.0004
G0 F4500 X99.427 Y116.256
G1 F1800 X101.959 Y118.788 E74.32863
G0 F4500 X101.741 Y119.065
G1 F1800 X99.187 Y116.511 E74.65972
G0 F4500 X98.932 Y116.751
G1 F1800 X101.523 Y119.342 E74.9956
G0 F4500 X101.305 Y119.619
G1 F1800 X98.637 Y116.951 E75.34146
G0 F4500 X98.342 Y117.152
G1 F1800 X101.087 Y119.897 E75.6973
G0 F4500 X100.87 Y120.174
G1 F1800 X98.022 Y117.326 E76.0665
